X:1
T:Wenn Wir in Höchsten Nöten, LM
T:Wenn Wir in Höchsten Nöten, LM
T:Genevan Psalter, 1547
T:Public Domain Courtesy of the Cyber Hymnal™
C:Genevan Psalter, 1547
Z:Public Domain
Z:Courtesy of the Cyber Hymnal™
%%score ( 1 2 ) 3
L:1/8
M:4/4
K:F
V:1 treble 
V:2 treble 
V:3 bass 
V:1
 [CF]4 [DF]2 [EG]2 | [FA]4 [EG]2 B4 | E2 [FA]2 G4 | F4 z2 [FA]2 | [FB]2 [FA]2 [EG]2 [DF]2 | %5
 [^CE]4 [DF]4 | [EG]8 | z2 [Fc]2 [FB]2 [FA]2 | [DG]4 [CE]4 | [CF]4 [=B,D]4 | C4 z2 [FA]2 | %11
 [FB]2 [FA]2 [EG]2 [DF]2 | A4 G4 | [CF]8 |] %14
V:2
 x8 | x6 D2 x2 | x4 (F2 E2) | F4 x4 | x8 | x8 | x8 | x8 | x8 | x8 | C4 x4 | x8 | (E2 F2) (F2 E2) | %13
 x8 |] %14
V:3
 [F,A,]4 [D,A,]2 [C,C]2 | [F,C]4 [C,C]2 ([G,,B,]2- x2 | [G,,B,]2) [A,,C]2 [C,C]4 | %3
 [F,,A,]4 z2 [F,C]2 | [B,,D]2 [F,,C]2 [C,C]2 [D,A,]2 | [A,,A,]4 [D,A,]4 | [C,C]8 | %7
 z2 [A,,C]2 [B,,D]2 [F,,C]2 | [G,,B,]4 [A,,A,]4 | [F,,A,]4 [G,,G,]4 | [C,E,]4 z2 [F,,C]2 | %11
 [B,,D]2 [F,C]2 [C,C]2 [D,A,]2 | [A,,C]4 [C,C]4 | [F,,A,]8 |] %14

